src/icons/Chevron_bottom.svg

<svg width="32" height="32" viewBox="0 0 32 32" fill="none" xmlns="http://www.w3.org/2000/svg">
<path fill-rule="evenodd" clip-rule="evenodd" d="M5.29289 11.2929C5.68342 10.9024 6.31658 10.9024 6.70711 11.2929L16 20.5858L25.2929 11.2929C25.6834 10.9024 26.3166 10.9024 26.7071 11.2929C27.0976 11.6834 27.0976 12.3166 26.7071 12.7071L16.7071 22.7071C16.3166 23.0976 15.6834 23.0976 15.2929 22.7071L5.29289 12.7071C4.90237 12.3166 4.90237 11.6834 5.29289 11.2929Z" fill="white"/>
<path fill-rule="evenodd" clip-rule="evenodd" d="M4.93934 10.9393C5.52513 10.3536 6.47487 10.3536 7.06066 10.9393L16 19.8787L24.9393 10.9393C25.5251 10.3536 26.4749 10.3536 27.0607 10.9393C27.6464 11.5251 27.6464 12.4749 27.0607 13.0607L17.0607 23.0607C16.4749 23.6464 15.5251 23.6464 14.9393 23.0607L4.93934 13.0607C4.35355 12.4749 4.35355 11.5251 4.93934 10.9393ZM6.35355 11.6464C6.15829 11.4512 5.84171 11.4512 5.64645 11.6464C5.45118 11.8417 5.45118 12.1583 5.64645 12.3536L15.6464 22.3536C15.8417 22.5488 16.1583 22.5488 16.3536 22.3536L26.3536 12.3536C26.5488 12.1583 26.5488 11.8417 26.3536 11.6464C26.1583 11.4512 25.8417 11.4512 25.6464 11.6464L16.3536 20.9393C16.2598 21.0331 16.1326 21.0858 16 21.0858C15.8674 21.0858 15.7402 21.0331 15.6464 20.9393L6.35355 11.6464Z" fill="white"/>
</svg>

<svg xmlns="http://www.w3.org/2000/svg" width="32" height="32" fill="none"><path fill="#fff" fill-rule="evenodd" d="M5.293 11.293a1 1 0 0 1 1.414 0L16 20.586l9.293-9.293a1 1 0 0 1 1.414 1.414l-10 10a1 1 0 0 1-1.414 0l-10-10a1 1 0 0 1 0-1.414" clip-rule="evenodd"/><path fill="#fff" fill-rule="evenodd" d="M4.94 10.94a1.5 1.5 0 0 1 2.12 0L16 19.878l8.94-8.94a1.5 1.5 0 0 1 2.12 2.122l-10 10a1.5 1.5 0 0 1-2.12 0l-10-10a1.5 1.5 0 0 1 0-2.122m1.414.706a.5.5 0 0 0-.708.708l10 10a.5.5 0 0 0 .708 0l10-10a.5.5 0 0 0-.708-.708l-9.292 9.293a.5.5 0 0 1-.708 0z" clip-rule="evenodd"/></svg>
